X: 40870
T: Trezelan
R: waltz
M: 3/4
K: Adorian
EA AG B2|EA AG ED|EA AG B2|de dB AG|
EA AG B2|EA AG ED|EA AG B2|de dB A2||
ea gf d2|eg fe dB|ea gf d2|de fg e2|
ea gf d2|eg fe dB|ea gf d2|de fg e2||

